src/pages/Pricing/Companies/bloomberg.svg

<svg width="217" height="40" viewBox="0 0 217 40" fill="none" xmlns="http://www.w3.org/2000/svg">
  <g clip-path="url(#clip0)">
    <path d="M0 0H15.8823C18.9076 0 21.1765 0.756303 22.8571 2.01681C24.7059 3.52941 25.7143 5.71429 25.7143 8.40336C25.7143 11.5126 24.4538 13.4454 21.9328 14.6219V14.7899C25.2941 15.8824 27.2269 18.9076 27.2269 22.521C27.2269 25.9664 25.8824 28.6555 23.6975 30.3361C21.8487 31.6807 19.4958 32.2689 16.3025 32.2689H0V0ZM14.2857 12.605C15.9664 12.605 17.2269 11.6807 17.2269 9.7479C17.2269 7.89916 15.9664 6.97479 14.2017 6.97479H8.7395V12.521H14.2857V12.605ZM15.042 25.1261C16.9748 25.1261 18.4034 23.9496 18.4034 21.8487C18.4034 19.5798 16.8908 18.5714 15.042 18.5714H8.82353V25.2101H15.042V25.1261Z" fill="black"/>
    <path d="M28.6553 0H36.9746V32.3529H28.6553V0Z" fill="black"/>
    <path d="M38.6553 20.8404C38.6553 13.5295 43.3612 8.65552 50.6721 8.65552C57.983 8.65552 62.6049 13.6135 62.6049 20.8404C62.6049 28.1513 57.983 33.0253 50.6721 33.0253C43.3612 33.0253 38.6553 28.1513 38.6553 20.8404ZM54.2855 20.8404C54.2855 16.8068 53.025 14.2858 50.504 14.2858C47.983 14.2858 46.8065 16.8068 46.8065 20.8404C46.8065 24.874 47.983 27.479 50.504 27.479C53.025 27.395 54.2855 24.874 54.2855 20.8404Z" fill="black"/>
    <path d="M63.5293 20.8404C63.5293 13.5295 68.2352 8.65552 75.5461 8.65552C82.857 8.65552 87.3948 13.5295 87.3948 20.8404C87.3948 28.1513 82.773 33.0253 75.4621 33.0253C68.2352 33.0253 63.5293 28.1513 63.5293 20.8404ZM79.1595 20.8404C79.1595 16.8068 77.899 14.2858 75.378 14.2858C72.857 14.2858 71.6806 16.8068 71.6806 20.8404C71.6806 24.874 72.857 27.479 75.378 27.479C77.899 27.395 79.1595 24.874 79.1595 20.8404Z" fill="black"/>
    <path d="M89.0757 9.24368H96.8068V12.6891H96.9748C98.4874 9.99998 100.588 8.57141 103.95 8.57141C106.891 8.57141 109.076 9.99998 110.168 12.521H110.336C112.185 9.49578 114.622 8.57141 117.479 8.57141C122.857 8.57141 125.126 12.521 125.126 17.8151V32.2689H117.059V19.2437C117.059 16.8907 116.303 15.3781 114.286 15.3781C112.269 15.3781 111.261 17.2269 111.261 19.7479V32.2689H103.193V19.2437C103.193 16.8907 102.437 15.3781 100.42 15.3781C98.4034 15.3781 97.395 17.2269 97.395 19.7479V32.2689H89.0757V9.24368Z" fill="black"/>
    <path d="M135.294 29.2437H135.21V32.2689H127.479V0H135.546V11.5966H135.714C137.227 9.57983 139.328 8.4874 142.269 8.4874C148.067 8.4874 151.429 13.6975 151.429 20.6723C151.429 28.4874 147.815 33.0252 141.765 33.0252C139.244 33.0252 136.639 31.8487 135.294 29.2437ZM143.109 20.5882C143.109 16.8908 141.765 14.4538 139.328 14.4538C136.807 14.4538 135.294 16.8908 135.294 20.5882C135.294 24.2857 136.891 26.7227 139.328 26.7227C141.765 26.7227 143.109 24.3697 143.109 20.5882Z" fill="black"/>
    <path d="M152.353 20.7563C152.353 13.5294 157.143 8.57141 164.034 8.57141C167.479 8.57141 170.084 9.66385 172.101 11.5966C174.79 14.2017 175.966 18.2353 175.882 22.9412H160.42C160.756 25.7983 162.101 27.3109 164.538 27.3109C165.966 27.3109 167.227 26.6386 167.731 25.126H175.546C174.202 30.4201 170.084 33.0252 164.286 33.0252C157.143 32.9412 152.353 28.0672 152.353 20.7563ZM160.42 18.3193H167.815C167.647 15.5462 166.135 14.1176 164.202 14.1176C161.933 14.0336 160.672 15.6302 160.42 18.3193Z" fill="black"/>
    <path d="M185.042 13.1933H185.21C186.891 10 189.076 8.7395 191.849 8.7395C192.521 8.7395 192.941 8.82354 193.193 8.9916V16.0504H193.025C188.235 15.2101 185.462 17.479 185.462 22.6891V32.3529H177.311V9.2437H185.042V13.1933Z" fill="black"/>
    <path d="M194.033 32.353H201.849C202.185 33.3614 203.193 34.2857 205.126 34.2857C207.731 34.2857 208.655 32.6891 208.655 30.2521V28.5715H208.487C207.227 30.0841 205.462 31.1765 202.941 31.1765C197.983 31.1765 193.613 27.479 193.613 20.2521C193.613 13.6135 197.143 8.48743 202.521 8.48743C205.63 8.48743 207.479 9.74793 208.739 11.6807H208.907V9.1597H216.638V29.1597C216.638 32.8572 215.378 35.7143 213.445 37.395C211.428 39.1597 208.571 39.916 205.294 39.916C199.075 40 194.79 37.479 194.033 32.353ZM208.991 19.916C208.991 17.0589 207.647 14.7059 205.294 14.7059C203.025 14.7059 201.596 16.7227 201.596 19.916C201.596 23.0252 203.025 25.2101 205.294 25.2101C207.563 25.2101 208.991 22.9412 208.991 19.916Z" fill="black"/>
  </g>
  <defs>
    <clipPath id="clip0">
      <rect width="216.639" height="40" fill="white"/>
    </clipPath>
  </defs>
</svg>

<svg xmlns="http://www.w3.org/2000/svg" width="217" height="40" fill="none">
  <defs/>
  <g fill="#000" clip-path="url(#clip0)">
    <path d="M0 0h15.9c3 0 5.3.8 7 2a8 8 0 012.8 6.4c0 3.1-1.2 5-3.8 6.2v.2c3.4 1 5.3 4.1 5.3 7.7 0 3.5-1.3 6.2-3.5 7.8a12 12 0 01-7.4 2H0V0zm14.3 12.6c1.7 0 3-1 3-2.9C17.2 8 16 7 14.1 7H8.7v5.5h5.6v.1zm.7 12.5c2 0 3.4-1.2 3.4-3.3 0-2.2-1.5-3.2-3.4-3.2H8.8v6.6H15zM28.7 0H37v32.4h-8.3V0zM38.7 20.8c0-7.3 4.7-12.1 12-12.1s11.9 5 11.9 12.1c0 7.4-4.6 12.2-12 12.2-7.2 0-12-4.8-12-12.2zm15.6 0c0-4-1.3-6.5-3.8-6.5s-3.7 2.5-3.7 6.5 1.2 6.7 3.7 6.7c2.5-.1 3.8-2.6 3.8-6.7zM63.5 20.8c0-7.3 4.7-12.1 12-12.1 7.4 0 11.9 4.8 11.9 12.1 0 7.4-4.6 12.2-12 12.2-7.2 0-11.9-4.8-11.9-12.2zm15.7 0c0-4-1.3-6.5-3.8-6.5s-3.7 2.5-3.7 6.5 1.2 6.7 3.7 6.7c2.5-.1 3.8-2.6 3.8-6.7zM89 9.2h7.8v3.5h.2a7.3 7.3 0 017-4.1c2.9 0 5 1.4 6.2 4h.1c1.9-3.1 4.3-4 7.2-4 5.4 0 7.6 4 7.6 9.2v14.5h-8v-13c0-2.4-.8-4-2.8-4-2 0-3 2-3 4.4v12.6h-8.1v-13c0-2.4-.8-4-2.8-4-2 0-3 2-3 4.4v12.6H89v-23zM135.3 29.2v3h-7.8V0h8v11.6h.2c1.5-2 3.6-3.1 6.6-3.1 5.8 0 9.1 5.2 9.1 12.2 0 7.8-3.6 12.3-9.6 12.3a7.1 7.1 0 01-6.5-3.8zm7.8-8.6c0-3.7-1.3-6.1-3.8-6.1s-4 2.4-4 6c0 3.8 1.6 6.2 4 6.2 2.5 0 3.8-2.3 3.8-6.1zM152.4 20.8c0-7.3 4.7-12.2 11.6-12.2 3.5 0 6 1 8.1 3 2.7 2.6 3.9 6.6 3.8 11.3h-15.5c.4 2.9 1.7 4.4 4.1 4.4 1.5 0 2.7-.7 3.2-2.2h7.8c-1.3 5.3-5.4 8-11.2 8-7.2-.2-12-5-12-12.3zm8-2.5h7.4c-.2-2.8-1.7-4.2-3.6-4.2-2.3 0-3.5 1.5-3.8 4.2zM185 13.2h.2c1.7-3.2 3.9-4.5 6.6-4.5.7 0 1.1.1 1.4.3v7h-.2c-4.8-.8-7.5 1.5-7.5 6.7v9.7h-8.2V9.2h7.7v4zM194 32.4h7.8c.4 1 1.4 1.9 3.3 1.9 2.6 0 3.6-1.6 3.6-4v-1.7h-.2a6.9 6.9 0 01-5.6 2.6c-5 0-9.3-3.7-9.3-11 0-6.6 3.5-11.7 9-11.7 3 0 4.9 1.2 6.1 3.2h.2V9.2h7.7v20c0 3.7-1.2 6.5-3.2 8.2-2 1.8-4.8 2.5-8.1 2.5-6.2.1-10.5-2.4-11.3-7.5zm15-12.5c0-2.8-1.4-5.2-3.7-5.2-2.3 0-3.7 2-3.7 5.2 0 3.1 1.4 5.3 3.7 5.3 2.3 0 3.7-2.3 3.7-5.3z"/>
  </g>
  <defs>
    <clipPath id="clip0">
      <path fill="#fff" d="M0 0h216.6v40H0z"/>
    </clipPath>
  </defs>
</svg>
